packages/icons/src/space-evenly-horizontally.svg

<svg width="15" height="15" viewBox="0 0 15 15" fill="none" xmlns="http://www.w3.org/2000/svg">
  <path
    fill-rule="evenodd"
    clip-rule="evenodd"
    d="M14.4999 0.999992C14.2237 0.999992 13.9999 1.22385 13.9999 1.49999L13.9999 13.4999C13.9999 13.776 14.2237 13.9999 14.4999 13.9999C14.776 13.9999 14.9999 13.776 14.9999 13.4999L14.9999 1.49999C14.9999 1.22385 14.776 0.999992 14.4999 0.999992ZM0.499996 0.999992C0.223856 0.999992 -9.78509e-09 1.22385 -2.18556e-08 1.49999L4.07279e-07 13.4999C3.95208e-07 13.776 0.223855 13.9999 0.499996 13.9999C0.776136 13.9999 0.999992 13.776 0.999992 13.4999L0.999992 1.49999C0.999992 1.22385 0.776136 0.999992 0.499996 0.999992ZM1.99998 6.99994C1.99998 6.44766 2.44769 5.99995 2.99998 5.99995L5.99995 5.99995C6.55223 5.99995 6.99994 6.44766 6.99994 6.99994L6.99994 7.99993C6.99994 8.55221 6.55223 8.99992 5.99995 8.99992L2.99998 8.99992C2.4477 8.99992 1.99998 8.55221 1.99998 7.99993L1.99998 6.99994ZM8.99993 5.99995C8.44765 5.99995 7.99993 6.44766 7.99993 6.99994L7.99993 7.99993C7.99993 8.55221 8.44765 8.99992 8.99993 8.99992L11.9999 8.99992C12.5522 8.99992 12.9999 8.55221 12.9999 7.99993L12.9999 6.99994C12.9999 6.44766 12.5522 5.99995 11.9999 5.99995L8.99993 5.99995Z"
    fill="currentColor"
  />
</svg>

<svg xmlns="http://www.w3.org/2000/svg" width="15" height="15" fill="none"><path fill="currentColor" fill-rule="evenodd" d="M14.5 1a.5.5 0 0 0-.5.5v12a.5.5 0 1 0 1 0v-12a.5.5 0 0 0-.5-.5M.5 1a.5.5 0 0 0-.5.5v12a.5.5 0 0 0 1 0v-12A.5.5 0 0 0 .5 1M2 7a1 1 0 0 1 1-1h3a1 1 0 0 1 1 1v1a1 1 0 0 1-1 1H3a1 1 0 0 1-1-1zm7-1a1 1 0 0 0-1 1v1a1 1 0 0 0 1 1h3a1 1 0 0 0 1-1V7a1 1 0 0 0-1-1z" clip-rule="evenodd"/></svg>
